X: 15091
T: Cuddy claw'd her
T: Cuddy clau'd her
N: There's a small spelling difference on the tune page and in the index.
%R: jig
B: James Oswald "The Caledonian Pocket Companion" v.1 b.5 p.9
S: https://ia800501.us.archive.org/18/items/caledonianpocket01rugg/caledonianpocket01rugg_bw.pdf
N: There's an odd double-bar-line between the last 2 strains; maybe it should be a repeat symbol, too?
Z: 2020 John Chambers <jc:trillian.mit.edu>
M: 6/8
L: 1/16
K: G
"_Brisk"G2 |\
TB3cd2 d2B2d2 | d2=f4 TA4=F2 | (BAB)cd2 d2B2d2 | d2g4 TB4G2 |\
B2g4 TB4G2 | A2=f4 TA4=F2 | (BABc)d2 d2B2d2 | G2g4 TB4G2 :|
|:\
B2G2d2 B2G2d2 | A2=F2c2 A2=F2f2 | B2G2d2 B2G2g2 | B2G2d2 B2G2g2 |\
b2g2d2 B2g2G2 | A2=f2c2 c2(ABcA) | TB3cd2 (dcBA)G2 | B2g4 TB4G2 :|
|:\
B2g4 B2g4 | A2=f4 TA4=F2 | B2g4 B2g4 | G2g4 B2g4 |\
(cBcde)c (dcBcd)B | A2=f2F2 c2(ABcA) | TB3cd2 (cB)(cA)G2 |
B2g4 TB4G2 ::\
bgdgB2 bgdgB2 | a=fcfA2 a=fcfA2 | bgdgB2 bgdgB2 | bgdgBg bgdgBg |
cacaca BgBgBg | A2=f2F2 (c2ABc)A | (BABcd)B (dcBA)G2 | B2g4 TB4G2 ::\
b2g4 (dcBA)G2 | a2=f4 TA4=F2 |
b2g4 (dcBA)G2 | b2g4 (dcBA)G2 |\
c2(ag)a2 B2(gf)g2 | A2=f2F2 Tc4A2 | (BABcd)e (dcBA)G2 | b2g4 TB4G2 |[|\
D2G2B2 D2G2B2 |
A2=f4 A4=F2 | D2G2B2 D2G2B2 | d2g4 TB4G2 |\
b2g4 (dcBA)G2 | a2=f4 TA4=F2 |(BABc)d2 d2B2G2 | B2g4 TB4G2 :|
